propusk-quiz/img/icons/phone.svg

<svg width="18" height="19" viewBox="0 0 18 19" fill="none" xmlns="http://www.w3.org/2000/svg">
<path d="M6.84347 16.8734C6.08711 17.3621 5.18581 17.575 4.29111 17.4765C3.3964 17.3779 2.56287 16.9738 1.93067 16.3321L1.37797 15.7909C1.13567 15.5427 0.999999 15.2093 0.999999 14.8622C0.999999 14.515 1.13567 14.1817 1.37797 13.9334L3.72384 11.6086C3.96961 11.3667 4.30041 11.2311 4.64499 11.2311C4.98958 11.2311 5.32038 11.3667 5.56614 11.6086V11.6086C5.81399 11.8512 6.14683 11.9871 6.49344 11.9871C6.84004 11.9871 7.17289 11.8512 7.42073 11.6086L11.1053 7.9183C11.2282 7.79698 11.3259 7.6524 11.3925 7.49297C11.4591 7.33353 11.4934 7.16242 11.4934 6.98958C11.4934 6.81675 11.4591 6.64563 11.3925 6.4862C11.3259 6.32676 11.2282 6.18218 11.1053 6.06086V6.06086C10.8638 5.81472 10.7285 5.48341 10.7285 5.1383C10.7285 4.79318 10.8638 4.46187 11.1053 4.21573L13.4389 1.87856C13.6868 1.63588 14.0196 1.5 14.3662 1.5C14.7128 1.5 15.0457 1.63588 15.2935 1.87856L15.8339 2.4321C16.4746 3.06528 16.8781 3.90009 16.9765 4.79617C17.0749 5.69225 16.8623 6.59494 16.3743 7.35246C13.8319 11.1051 10.5969 14.3367 6.84347 16.8734V16.8734Z" stroke="#CDCDCD" stroke-width="1.5" stroke-linecap="round" stroke-linejoin="round"/>
</svg>

<svg width="18" height="19" fill="none" xmlns="http://www.w3.org/2000/svg"><path d="M6.843 16.873a3.914 3.914 0 01-4.912-.54l-.553-.542a1.33 1.33 0 010-1.858l2.346-2.324a1.313 1.313 0 011.842 0v0a1.326 1.326 0 001.855 0l3.684-3.69a1.304 1.304 0 000-1.858v0a1.317 1.317 0 010-1.845l2.334-2.337a1.326 1.326 0 011.854 0l.54.553a3.926 3.926 0 01.541 4.92 35.573 35.573 0 01-9.53 9.521v0z" stroke="#CDCDCD" stroke-width="1.5" stroke-linecap="round" stroke-linejoin="round"/></svg>
